X:158 
T:Mullingar Races (reel), The 
B:CRE3.107 (RÃÂÃÂÃÂÃÂ¡saÃÂÃÂÃÂÃÂ­ an Mhuilinn Chearr)
F:file ID: cre.3/158mull_r
R:reel
L:1/8
Q:180
M:C
K:D
D2FD EA, A,2|DEFA Bcd2|(3fga ec dcdA|(3Bcd AF EGFE|
DEFD EA, A,2|DEFA Bcd2|(3fga ec dBAG|1 FGEF D4:|2 FGEF D2||
|:Ac|d2fd adfa|afdf eB~B2|d2fd adfd|Be~e2 egfe|
d2fd adfa|afdf eB~B2|dfec dBAG|F2EF D2:|

%%%

